!!!COM: Robert Schumann
!!!CNT: Deutsch
!!!TXO: Deutsch
!!!OTL: Warte, warte, wilder Schiffmann
!!!LYR: Heine
!!!OPR: Liederkreis
!!!OPS: Op.24
!!!ONM: No. 6
!!!ENC: Ben Fuhrman
!!!YOR: Schumann Lieder - Max Friedlaender, ed.,
!!!YOR: New York: C. F. Peters, Vol. 1
!!!ODT: 1840/
!!NB: Vocal melody and text only encoded.
!!NB: First instance of melodic material only encoded.
**kern	**silbe
*clefG2	*
*k[]	*
*M4/4	*
!!created: 6/06/06 10:01
!!proofed and posted: 6/06/06 10:01
!!edit time: 61 minutes
=2	=2
{2.cc	{War-
4a	-te,
=3	=3
4g	war-
4a	-te,
4a#	wil-
4b	-der
=4	=4
2cc	Schiff-
2c}	-mann,}
!! rest to measure 6
=6	=6
{(2.cc	{gleich
4a)	|
=7	=7
(4g	folg'
4a)	|
4a#	ich
4b	zum
=8	=8
4.cc	Ha-
8c	-fen
2c}	dir,}
!! rest to measure 10
=10	=10
{2cc	{gleich,
2r	.
=11	=11
2g	gleich,
2r	.
=12	=12
2cc	gleich!
4cc	Von
4cc	zwei
=13	=13
4b	Jung-
4g	-frau'n
4.f#	nehm'
8g	ich
=14	=14
4e	Abs-
4e	-chied,
4cc	von
4cc	Eu-
=15	=15
4b	-ro-
4g	-pa
4f#	und
4g	von
=16	=16
(qf#	Ihr.
2e)}	|}
2r	.
=17	=17
{2.e	{Blut-
4e	-quell,
=18	=18
2.fn	rinn'
4f	aus
=19	=19
2e	mei-
2c#	-nen
=20	=20
(4c#	Au-
4d)	|
2d	-gen,
=21	=21
2.d	Blut-
4d	-quell,
=22	=22
2.e	brich
4e	aus
=23	=23
2d	mei-
2B	-nem
=24	=24
2c}	Lieb,}
2r	.
=25	=25
{2.c	{dass
4c	ich
=26	=26
2e	mit
2c	dem
=27	=27
2.c	hei-
4c	-ssen
=28	=28
(4e	Blu-
4c)	|
2c	-te
=29	=29
2.e-	mei-
4e-	-ne
=30	=30
2c	Schmer-
2e-	-zen
=31	=31
2.e-	nie-
4e-	-der-
=32	=32
1g}	-schreib'}
!! rest to measure 37
=37	=37
{2.a-	{Ei,
4a-	mein
=38	=38
2.dd	Lieb,
4a-	war-
=39	=39
2a-	-um
2a-	just
=40	=40
2dd	heu-
2g}	-te}
=41	=41
4r	.
{2cc	{schau-
[4cc	-dert
=42	=42
4cc]	|
2a	dich
[4a	mein
=43	=43
4a]	|
2g	Blut
4g	zu
=44	=44
2cc}	sehn?}
2r	.
=45	=45
{2.c	{sahst
4c	mich
=46	=46
2.f#	bleich
4c	und
=47	=47
2c	her-
2c	-ze-
=48	=48
2f#	-blu-
2B}	-tend}
=49	=49
4r	.
{2e	{lan-
[4e	ge
=50	=50
4e]	|
2c	Jah-
[4A	-re
=51	=51
4A]	|
2d	vor
4d	dir
=52	=52
2G}	stehn!}
2r	.
=53	=53
2r	.
{[2a-	{Oh!
=54	=54
(2a-]	|
2g)}	|}
!! rest to measure 66
=66	=66
2r	.
{4cc	{Kennst
4cc	du
=67	=67
4b	noch
4g	das
4.f#	al-
8g	-te
=68	=68
4e	Lieb-
4e	-chen
4.cc	von
8cc	der
=69	=69
4b	Schlang'
4g	im
4f#	Pa-
4g	-ra-
=70	=70
(qf#	-dies,
2e)}	|}
2r	.
=71	=71
2r	.
{4e	{die
4e	durch
=72	=72
2.fn	schlim-
4fn	-me
=73	=73
2.e	Ap-
4c#	-fel-
=74	=74
(4c#	-ga-
4d)	|
2d	-be
=75	=75
2.f#	un-
4f#	-sern
=76	=76
2g	Ahn'
2g	ins
=77	=77
2f#	E-
2d#	-lend
=78	=78
2e}	stiess?}
2r	.
=79	=79
{2.e	{Al-
4e	-les
=80	=80
2g	Un-
2e	-heil
=81	=81
2.e	brach-
4e	-ten
=82	=82
2g	A2p-
2e	-fel!
=83	=83
2.g	E-
4g	-va
=84	=84
2.b	bracht'
4g	da-
=85	=85
2.g	-mit
4g	dem
=86	=86
1b	Tod,
=87	=87
2.b	E-
4b	-ris
=88	=88
2.dd	brach-
4b	-te
=89	=89
2b	Tro-
2b	-jas
=90	=90
2dd	Flam-
2b	-men;
=91	=91
[1g	du,
=92	=92
1g]}	|}
!! rest to measure 95
=95	=95
{2.g	{du
4g	bracht'st
=96	=96
2dd	bei-
2g	-des,
=97	=97
2.g	Flamm,
4g	und
=98	=98
1ff}	Tod.}
==	==
*-	*-
